X:1
T:[ID 1-3]
T:[ID 1-3]
T:Bezeichnung standardisiert: Menuett Men\"uet
T:Urheber unbekannt Datum in der hier transkribierten schriftlichen Quelle: vermutlich vor 1767
C:Urheber unbekannt
C:Datum in der hier transkribierten schriftlichen Quelle: vermutlich vor 1767
L:1/8
M:3/4
K:Dmin
V:1 treble 
V:1
 d2 AG"^?"^FE | D4 a2 | bagfed | ^c2 ^Bc A2 | A,2 A,2 A,2 | fefd e2 | A,2 A,2 A,2 | fefd e2 | %8
 d2 AGFE | D6 :: f2 Tf4 | g2 Tg4 | a2 _bagf | e2 de c2 | c2 c2 c2 | d2 cB c2 | c2 c2 c2 | %17
 d2 cB c2 | f2 gfeg | f6 | a2 aaaa | g2 gggg | f2 gfed | ^c2 ^Bc A2 | d2 AGFE | D4 a2 | bagfed | %27
 ^c2 ^Bc A2 | A2 A2 A2 | fefd e2 | A2 A2 A2 | fefd e2 | d2 agfe | d6 :| %34

